img/brackets_edge.svg

<svg xmlns="http://www.w3.org/2000/svg" xmlns:xlink="http://www.w3.org/1999/xlink" width="480.367" height="400"><g fill="#fff"><path d="M470.088 20.098c-.447-5.943-5.363-10.643-11.421-10.643h-437.333c-6.058 0-10.975 4.7-11.421 10.643l-.087 295.49c0 6.357 5.151 11.509 11.509 11.509h437.333c6.357 0 11.509-5.151 11.509-11.509l-.089-295.49zm-18.326 251.756h-423.523v-243.985h423.522v243.985zM313.657 382.338c-18.414-4.603-23.018-18.414-23.018-36.828v-4.604h-101.278v4.604c0 18.414-4.604 32.225-23.018 36.828-4.465 1.114-4.604 9.207 0 9.207h147.313c4.604 0 4.466-8.093.001-9.207z"/></g><defs><path id="a" d="M38.637 38.545h175.455v175.455h-175.455z"/></defs><clipPath id="b"><use xlink:href="#a" overflow="visible"/></clipPath><g clip-path="url(#b)"><defs><path id="c" d="M38.637 38.545h175.455v175.455h-175.455z"/></defs><clipPath id="d"><use xlink:href="#c" overflow="visible"/></clipPath><g clip-path="url(#d)"><defs><path id="e" d="M38.637 38.545h175.455v175.455h-175.455z"/></defs><clipPath id="f"><use xlink:href="#e" overflow="visible"/></clipPath><g clip-path="url(#f)"><defs><path id="g" d="M37.979 41.987h176.989v172.878h-176.989z"/></defs><clipPath id="h"><use xlink:href="#g" overflow="visible"/></clipPath><g opacity=".65" clip-path="url(#h)"><defs><path id="i" d="M37.979 41.987h176.989v172.878h-176.989z"/></defs><clipPath><use xlink:href="#i" overflow="visible"/></clipPath></g></g></g><path clip-path="url(#d)" fill-rule="evenodd" clip-rule="evenodd" fill="#1C3A37" d="M44.147 46.099h164.488v160.376h-164.488z"/><g clip-path="url(#d)"><defs><path id="j" d="M38.637 38.545h175.455v175.455h-175.455z"/></defs><clipPath id="k"><use xlink:href="#j" overflow="visible"/></clipPath><g opacity=".18" clip-path="url(#k)"><defs><path id="l" d="M44.148 57.75h164.488v146.669h-164.488z"/></defs><clipPath id="m"><use xlink:href="#l" overflow="visible"/></clipPath><g clip-path="url(#m)"><defs><path id="n" d="M44.147 200.307h164.489v4.112h-164.489v-4.112zm0-17.82h164.489v4.112h-164.489v-4.112zm0-35.639h164.489v4.112h-164.489v-4.112zm0-17.819h164.489v4.112h-164.489v-4.112zm0-17.82h164.489v4.112h-164.489v-4.112zm0-17.82h164.489v4.112h-164.489v-4.112zm0-17.819h164.489v4.112h-164.489v-4.112zm0-17.82h164.489v4.112h-164.489v-4.112zm0 106.918h164.489v4.112h-164.489v-4.112z"/></defs><clipPath id="p"><use xlink:href="#n" overflow="visible"/></clipPath><defs><filter id="o" filterUnits="userSpaceOnUse" x="44.147" y="57.75" width="164.489" height="146.669"><feColorMatrix values="1 0 0 0 0 0 1 0 0 0 0 0 1 0 0 0 0 0 1 0"/></filter></defs><mask maskUnits="userSpaceOnUse" x="44.147" y="57.75" width="164.489" height="146.669" id="r"><g filter="url(#o)"><linearGradient id="q" gradientUnits="userSpaceOnUse" x1="-65.574" y1="-1.05" x2="-64.889" y2="-1.05" gradientTransform="matrix(240 0 0 -240 15781.902 -120.979)"><stop offset="0" stop-color="#1A1A1A"/><stop offset=".483" stop-color="#fff"/><stop offset="1" stop-color="#1A1A1A"/></linearGradient><path clip-path="url(#p)" fill="url(#q)" d="M44.147 57.75h164.489v146.669h-164.489z"/></g></mask><linearGradient id="s" gradientUnits="userSpaceOnUse" x1="-65.574" y1="-1.05" x2="-64.889" y2="-1.05" gradientTransform="matrix(240 0 0 -240 15781.903 -120.979)"><stop offset="0" stop-color="#42C1C7"/><stop offset=".483" stop-color="#42C1C7"/><stop offset="1" stop-color="#42C1C7"/></linearGradient><path clip-path="url(#p)" mask="url(#r)" fill="url(#s)" d="M44.147 57.75h164.489v146.669h-164.489z"/></g></g><g opacity=".3" clip-path="url(#k)"><defs><path id="t" d="M44.148 48.84h164.488v146.669h-164.488z"/></defs><clipPath id="u"><use xlink:href="#t" overflow="visible"/></clipPath><g clip-path="url(#u)"><defs><path id="v" d="M44.147 173.578h164.489v4.112h-164.489v-4.112zm0 17.819h164.489v4.112h-164.489v-4.112zm0-53.459h164.489v4.112h-164.489v-4.112zm0 17.82h164.489v4.112h-164.489v-4.112zm0-35.639h164.489v4.112h-164.489v-4.112zm0-17.82h164.489v4.112h-164.489v-4.112zm0-17.819h164.489v4.112h-164.489v-4.112zm0-17.82h164.489v4.112h-164.489v-4.112zm0-17.82h164.489v4.112h-164.489v-4.112z"/></defs><clipPath id="x"><use xlink:href="#v" overflow="visible"/></clipPath><defs><filter id="w" filterUnits="userSpaceOnUse" x="44.147" y="48.84" width="164.489" height="146.669"><feColorMatrix values="1 0 0 0 0 0 1 0 0 0 0 0 1 0 0 0 0 0 1 0"/></filter></defs><mask maskUnits="userSpaceOnUse" x="44.147" y="48.84" width="164.489" height="146.669" id="z"><g filter="url(#w)"><linearGradient id="y" gradientUnits="userSpaceOnUse" x1="-65.574" y1="-1.067" x2="-64.889" y2="-1.067" gradientTransform="matrix(240 0 0 -240 15781.902 -133.979)"><stop offset="0" stop-color="#1A1A1A"/><stop offset=".483" stop-color="#fff"/><stop offset="1" stop-color="#1A1A1A"/></linearGradient><path clip-path="url(#x)" fill="url(#y)" d="M44.147 48.84h164.489v146.669h-164.489z"/></g></mask><linearGradient id="A" gradientUnits="userSpaceOnUse" x1="-65.574" y1="-1.067" x2="-64.889" y2="-1.067" gradientTransform="matrix(240 0 0 -240 15781.903 -133.979)"><stop offset="0" stop-color="#42C1C7"/><stop offset=".483" stop-color="#42C1C7"/><stop offset="1" stop-color="#42C1C7"/></linearGradient><path clip-path="url(#x)" mask="url(#z)" fill="url(#A)" d="M44.147 48.84h164.489v146.669h-164.489z"/></g></g><path clip-path="url(#k)" fill-rule="evenodd" clip-rule="evenodd" fill="#42C1C7" d="M122.965 157.656c0 .659-.219.995-.774 1.213-2.865 1.214-7.532 1.652-12.282 1.652-17.21 0-32.439-11.254-32.439-37.736 0-22.728 13.461-37.956 33.987-37.956 5.408 0 9.438.555 11.528 1.549.555.219.665.548.665 1.213v9.486c0 .884-.439.884-.774.774-2.646-1.322-6.676-2.097-11.309-2.097-12.912 0-21.521 9.821-21.521 26.702 0 20.856 11.809 27.037 21.521 27.037 4.414 0 7.423-.336 10.623-1.439.445-.22.774-.22.774.555v9.047zm52.424-25.488c0 17.209-8.828 28.353-22.617 28.353-16.114 0-22.843-13.679-22.843-28.243 0-16.114 8.608-28.025 22.952-28.025 14.455 0 22.508 11.363 22.508 27.915m-33.323 0c0 10.588 3.748 17.984 10.814 17.984 6.066 0 10.37-5.847 10.37-17.765 0-10.041-2.975-17.875-10.699-17.875-6.182 0-10.485 6.066-10.485 17.656"/></g></g></svg>

<?xml version="1.0" encoding="utf-8"?>
<!-- Generator: Adobe Illustrator 17.0.0, SVG Export Plug-In . SVG Version: 6.00 Build 0)  -->
<!DOCTYPE svg PUBLIC "-//W3C//DTD SVG 1.1//EN" "http://www.w3.org/Graphics/SVG/1.1/DTD/svg11.dtd">
<svg version="1.1" id="Layer_1" xmlns="http://www.w3.org/2000/svg" xmlns:xlink="http://www.w3.org/1999/xlink" x="0px" y="0px"
	 width="480.367px" height="400px" viewBox="0 0 480.367 400" enable-background="new 0 0 480.367 400" xml:space="preserve">
<g>
	<path fill="#FFFFFF" d="M470.088,20.098c-0.447-5.943-5.363-10.643-11.421-10.643H21.334c-6.058,0-10.975,4.7-11.421,10.643
		l-0.087,295.49c0,6.357,5.151,11.509,11.509,11.509h437.333c6.357,0,11.509-5.151,11.509-11.509L470.088,20.098z M451.762,271.854
		H28.239V27.869h423.522V271.854z"/>
	<path fill="#FFFFFF" d="M313.657,382.338c-18.414-4.603-23.018-18.414-23.018-36.828v-4.604H240h-50.639v4.604
		c0,18.414-4.604,32.225-23.018,36.828c-4.465,1.114-4.604,9.207,0,9.207H240h73.656
		C318.26,391.545,318.122,383.452,313.657,382.338z"/>
</g>
<g>
	<g>
		<defs>
			<rect id="SVGID_1_" x="38.637" y="38.545" width="175.455" height="175.455"/>
		</defs>
		<clipPath id="SVGID_2_">
			<use xlink:href="#SVGID_1_"  overflow="visible"/>
		</clipPath>
		<g clip-path="url(#SVGID_2_)">
			<defs>
				<rect id="SVGID_3_" x="38.637" y="38.545" width="175.455" height="175.455"/>
			</defs>
			<clipPath id="SVGID_4_">
				<use xlink:href="#SVGID_3_"  overflow="visible"/>
			</clipPath>
			<g clip-path="url(#SVGID_4_)">
				<defs>
					<rect id="SVGID_5_" x="38.637" y="38.545" width="175.455" height="175.455"/>
				</defs>
				<clipPath id="SVGID_6_">
					<use xlink:href="#SVGID_5_"  overflow="visible"/>
				</clipPath>
				<g clip-path="url(#SVGID_6_)">
					<g>
						<defs>
							<rect id="SVGID_7_" x="37.979" y="41.987" width="176.989" height="172.878"/>
						</defs>
						<clipPath id="SVGID_8_">
							<use xlink:href="#SVGID_7_"  overflow="visible"/>
						</clipPath>
						<g opacity="0.65" clip-path="url(#SVGID_8_)">
							<g>
								<defs>
									<rect id="SVGID_9_" x="37.979" y="41.987" width="176.989" height="172.878"/>
								</defs>
								<clipPath id="SVGID_10_">
									<use xlink:href="#SVGID_9_"  overflow="visible"/>
								</clipPath>
							</g>
						</g>
					</g>
				</g>
			</g>
			
				<rect x="44.147" y="46.099" clip-path="url(#SVGID_4_)" fill-rule="evenodd" clip-rule="evenodd" fill="#1C3A37" width="164.488" height="160.376"/>
			<g clip-path="url(#SVGID_4_)">
				<defs>
					<rect id="SVGID_11_" x="38.637" y="38.545" width="175.455" height="175.455"/>
				</defs>
				<clipPath id="SVGID_12_">
					<use xlink:href="#SVGID_11_"  overflow="visible"/>
				</clipPath>
				<g opacity="0.18" clip-path="url(#SVGID_12_)">
					<g>
						<defs>
							<rect id="SVGID_13_" x="44.148" y="57.75" width="164.488" height="146.669"/>
						</defs>
						<clipPath id="SVGID_14_">
							<use xlink:href="#SVGID_13_"  overflow="visible"/>
						</clipPath>
						<g clip-path="url(#SVGID_14_)">
							<defs>
								<path id="SVGID_15_" d="M44.147,200.307h164.489v4.112H44.147V200.307z M44.147,182.487h164.489v4.112H44.147V182.487z
									 M44.147,146.848h164.489v4.112H44.147V146.848z M44.147,129.029h164.489v4.112H44.147V129.029z M44.147,111.209h164.489
									v4.112H44.147V111.209z M44.147,93.389h164.489v4.112H44.147V93.389z M44.147,75.57h164.489v4.112H44.147V75.57z
									 M44.147,57.75h164.489v4.112H44.147V57.75z M44.147,164.668h164.489v4.112H44.147V164.668z"/>
							</defs>
							<clipPath id="SVGID_16_">
								<use xlink:href="#SVGID_15_"  overflow="visible"/>
							</clipPath>
							<defs>
								<filter id="Adobe_OpacityMaskFilter" filterUnits="userSpaceOnUse" x="44.147" y="57.75" width="164.489" height="146.669">
									<feColorMatrix  type="matrix" values="1 0 0 0 0  0 1 0 0 0  0 0 1 0 0  0 0 0 1 0"/>
								</filter>
							</defs>
							<mask maskUnits="userSpaceOnUse" x="44.147" y="57.75" width="164.489" height="146.669" id="SVGID_17_">
								<g filter="url(#Adobe_OpacityMaskFilter)">
									
										<linearGradient id="SVGID_18_" gradientUnits="userSpaceOnUse" x1="-65.5741" y1="-1.0503" x2="-64.8888" y2="-1.0503" gradientTransform="matrix(239.9995 0 0 -239.9995 15781.9023 -120.9788)">
										<stop  offset="0" style="stop-color:#1A1A1A"/>
										<stop  offset="0.483" style="stop-color:#FFFFFF"/>
										<stop  offset="1" style="stop-color:#1A1A1A"/>
									</linearGradient>
									<rect x="44.147" y="57.75" clip-path="url(#SVGID_16_)" fill="url(#SVGID_18_)" width="164.489" height="146.669"/>
								</g>
							</mask>
							
								<linearGradient id="SVGID_19_" gradientUnits="userSpaceOnUse" x1="-65.5741" y1="-1.0503" x2="-64.8888" y2="-1.0503" gradientTransform="matrix(239.9995 0 0 -239.9995 15781.9033 -120.9788)">
								<stop  offset="0" style="stop-color:#42C1C7"/>
								<stop  offset="0.483" style="stop-color:#42C1C7"/>
								<stop  offset="1" style="stop-color:#42C1C7"/>
							</linearGradient>
							
								<rect x="44.147" y="57.75" clip-path="url(#SVGID_16_)" mask="url(#SVGID_17_)" fill="url(#SVGID_19_)" width="164.489" height="146.669"/>
						</g>
					</g>
				</g>
				<g opacity="0.3" clip-path="url(#SVGID_12_)">
					<g>
						<defs>
							<rect id="SVGID_20_" x="44.148" y="48.84" width="164.488" height="146.669"/>
						</defs>
						<clipPath id="SVGID_21_">
							<use xlink:href="#SVGID_20_"  overflow="visible"/>
						</clipPath>
						<g clip-path="url(#SVGID_21_)">
							<defs>
								<path id="SVGID_22_" d="M44.147,173.578h164.489v4.112H44.147V173.578z M44.147,191.397h164.489v4.112H44.147V191.397z
									 M44.147,137.938h164.489v4.112H44.147V137.938z M44.147,155.758h164.489v4.112H44.147V155.758z M44.147,120.119h164.489
									v4.112H44.147V120.119z M44.147,102.299h164.489v4.112H44.147V102.299z M44.147,84.48h164.489v4.112H44.147V84.48z
									 M44.147,66.66h164.489v4.112H44.147V66.66z M44.147,48.84h164.489v4.112H44.147V48.84z"/>
							</defs>
							<clipPath id="SVGID_23_">
								<use xlink:href="#SVGID_22_"  overflow="visible"/>
							</clipPath>
							<defs>
								
									<filter id="Adobe_OpacityMaskFilter_1_" filterUnits="userSpaceOnUse" x="44.147" y="48.84" width="164.489" height="146.669">
									<feColorMatrix  type="matrix" values="1 0 0 0 0  0 1 0 0 0  0 0 1 0 0  0 0 0 1 0"/>
								</filter>
							</defs>
							<mask maskUnits="userSpaceOnUse" x="44.147" y="48.84" width="164.489" height="146.669" id="SVGID_24_">
								<g filter="url(#Adobe_OpacityMaskFilter_1_)">
									
										<linearGradient id="SVGID_25_" gradientUnits="userSpaceOnUse" x1="-65.5741" y1="-1.0673" x2="-64.8888" y2="-1.0673" gradientTransform="matrix(239.9995 0 0 -239.9995 15781.9023 -133.9787)">
										<stop  offset="0" style="stop-color:#1A1A1A"/>
										<stop  offset="0.483" style="stop-color:#FFFFFF"/>
										<stop  offset="1" style="stop-color:#1A1A1A"/>
									</linearGradient>
									<rect x="44.147" y="48.84" clip-path="url(#SVGID_23_)" fill="url(#SVGID_25_)" width="164.489" height="146.669"/>
								</g>
							</mask>
							
								<linearGradient id="SVGID_26_" gradientUnits="userSpaceOnUse" x1="-65.5741" y1="-1.0673" x2="-64.8888" y2="-1.0673" gradientTransform="matrix(239.9995 0 0 -239.9995 15781.9033 -133.9787)">
								<stop  offset="0" style="stop-color:#42C1C7"/>
								<stop  offset="0.483" style="stop-color:#42C1C7"/>
								<stop  offset="1" style="stop-color:#42C1C7"/>
							</linearGradient>
							
								<rect x="44.147" y="48.84" clip-path="url(#SVGID_23_)" mask="url(#SVGID_24_)" fill="url(#SVGID_26_)" width="164.489" height="146.669"/>
						</g>
					</g>
				</g>
				<path clip-path="url(#SVGID_12_)" fill-rule="evenodd" clip-rule="evenodd" fill="#42C1C7" d="M122.965,157.656
					c0,0.659-0.219,0.995-0.774,1.213c-2.865,1.214-7.532,1.652-12.282,1.652c-17.21,0-32.439-11.254-32.439-37.736
					c0-22.728,13.461-37.956,33.987-37.956c5.408,0,9.438,0.555,11.528,1.549c0.555,0.219,0.665,0.548,0.665,1.213v9.486
					c0,0.884-0.439,0.884-0.774,0.774c-2.646-1.322-6.676-2.097-11.309-2.097c-12.912,0-21.521,9.821-21.521,26.702
					c0,20.856,11.809,27.037,21.521,27.037c4.414,0,7.423-0.336,10.623-1.439c0.445-0.22,0.774-0.22,0.774,0.555V157.656z
					 M175.389,132.168c0,17.209-8.828,28.353-22.617,28.353c-16.114,0-22.843-13.679-22.843-28.243
					c0-16.114,8.608-28.025,22.952-28.025C167.336,104.253,175.389,115.616,175.389,132.168 M142.066,132.168
					c0,10.588,3.748,17.984,10.814,17.984c6.066,0,10.37-5.847,10.37-17.765c0-10.041-2.975-17.875-10.699-17.875
					C146.369,114.512,142.066,120.578,142.066,132.168"/>
			</g>
		</g>
	</g>
</g>
</svg>
